public/assets/images/icons/survey.svg

<svg width="120" height="120" viewBox="0 0 120 120" fill="none" xmlns="http://www.w3.org/2000/svg">
<path d="M10.6973 25.7949C10.6973 19.2807 15.978 14 22.4921 14H61.6511C68.1653 14 73.446 19.2807 73.446 25.7949V80.5231C73.446 87.0372 68.1653 92.318 61.6511 92.318H22.4921C15.978 92.318 10.6973 87.0372 10.6973 80.5231V25.7949Z" fill="#E6C3E6"/>
<foreignObject x="7.22949" y="3.92749" width="131.096" height="131.095"><div xmlns="http://www.w3.org/1999/xhtml" style="backdrop-filter:blur(15px);clip-path:url(#bgblur_0_911_3221_clip_path);height:100%;width:100%"></div></foreignObject><path data-figma-bg-blur-radius="30" fill-rule="evenodd" clip-rule="evenodd" d="M97.4887 87.8571C107.554 74.6971 106.569 55.7951 94.533 43.7592C81.4241 30.6502 60.1702 30.6502 47.0612 43.7592C33.9522 56.8682 33.9522 78.122 47.0612 91.231C59.0972 103.267 77.9991 104.252 91.1591 94.1867L101.304 104.332C102.226 105.253 103.719 105.253 104.641 104.332L107.634 101.339C108.555 100.417 108.555 98.9236 107.634 98.0024L97.4887 87.8571Z" fill="url(#paint0_linear_911_3221)" fill-opacity="0.3"/>
<foreignObject x="7.22949" y="3.92749" width="131.096" height="131.095"><div xmlns="http://www.w3.org/1999/xhtml" style="backdrop-filter:blur(15px);clip-path:url(#bgblur_1_911_3221_clip_path);height:100%;width:100%"></div></foreignObject><g data-figma-bg-blur-radius="30">
<path fill-rule="evenodd" clip-rule="evenodd" d="M97.1758 87.8778L97.3013 87.7138C107.296 74.6465 106.317 55.8772 94.3662 43.926C81.3494 30.9092 60.2449 30.9092 47.228 43.926C34.2112 56.9429 34.2112 78.0474 47.228 91.0642C59.1792 103.015 77.9485 103.994 91.0158 93.9993L91.1798 93.8738L101.471 104.165C102.3 104.994 103.645 104.994 104.474 104.165L107.467 101.172C108.296 100.343 108.296 98.9983 107.467 98.1692L97.1758 87.8778ZM91.1591 94.1867C77.9991 104.252 59.0972 103.267 47.0612 91.231C33.9522 78.122 33.9522 56.8682 47.0612 43.7592C60.1702 30.6502 81.4241 30.6502 94.533 43.7592C106.569 55.7951 107.554 74.6971 97.4887 87.8571L107.634 98.0024C108.555 98.9236 108.555 100.417 107.634 101.339L104.641 104.332C103.719 105.253 102.226 105.253 101.304 104.332L91.1591 94.1867Z" fill="url(#paint1_linear_911_3221)"/>
<path fill-rule="evenodd" clip-rule="evenodd" d="M97.1758 87.8778L97.3013 87.7138C107.296 74.6465 106.317 55.8772 94.3662 43.926C81.3494 30.9092 60.2449 30.9092 47.228 43.926C34.2112 56.9429 34.2112 78.0474 47.228 91.0642C59.1792 103.015 77.9485 103.994 91.0158 93.9993L91.1798 93.8738L101.471 104.165C102.3 104.994 103.645 104.994 104.474 104.165L107.467 101.172C108.296 100.343 108.296 98.9983 107.467 98.1692L97.1758 87.8778ZM91.1591 94.1867C77.9991 104.252 59.0972 103.267 47.0612 91.231C33.9522 78.122 33.9522 56.8682 47.0612 43.7592C60.1702 30.6502 81.4241 30.6502 94.533 43.7592C106.569 55.7951 107.554 74.6971 97.4887 87.8571L107.634 98.0024C108.555 98.9236 108.555 100.417 107.634 101.339L104.641 104.332C103.719 105.253 102.226 105.253 101.304 104.332L91.1591 94.1867Z" fill="url(#paint2_radial_911_3221)"/>
</g>
<defs>
<clipPath id="bgblur_0_911_3221_clip_path" transform="translate(-7.22949 -3.92749)"><path fill-rule="evenodd" clip-rule="evenodd" d="M97.4887 87.8571C107.554 74.6971 106.569 55.7951 94.533 43.7592C81.4241 30.6502 60.1702 30.6502 47.0612 43.7592C33.9522 56.8682 33.9522 78.122 47.0612 91.231C59.0972 103.267 77.9991 104.252 91.1591 94.1867L101.304 104.332C102.226 105.253 103.719 105.253 104.641 104.332L107.634 101.339C108.555 100.417 108.555 98.9236 107.634 98.0024L97.4887 87.8571Z"/>
</clipPath><clipPath id="bgblur_1_911_3221_clip_path" transform="translate(-7.22949 -3.92749)"><path fill-rule="evenodd" clip-rule="evenodd" d="M97.1758 87.8778L97.3013 87.7138C107.296 74.6465 106.317 55.8772 94.3662 43.926C81.3494 30.9092 60.2449 30.9092 47.228 43.926C34.2112 56.9429 34.2112 78.0474 47.228 91.0642C59.1792 103.015 77.9485 103.994 91.0158 93.9993L91.1798 93.8738L101.471 104.165C102.3 104.994 103.645 104.994 104.474 104.165L107.467 101.172C108.296 100.343 108.296 98.9983 107.467 98.1692L97.1758 87.8778ZM91.1591 94.1867C77.9991 104.252 59.0972 103.267 47.0612 91.231C33.9522 78.122 33.9522 56.8682 47.0612 43.7592C60.1702 30.6502 81.4241 30.6502 94.533 43.7592C106.569 55.7951 107.554 74.6971 97.4887 87.8571L107.634 98.0024C108.555 98.9236 108.555 100.417 107.634 101.339L104.641 104.332C103.719 105.253 102.226 105.253 101.304 104.332L91.1591 94.1867Z"/>
</clipPath><linearGradient id="paint0_linear_911_3221" x1="44.8375" y1="40.4869" x2="121.576" y2="80.2209" gradientUnits="userSpaceOnUse">
<stop stop-color="#DE5AFF" stop-opacity="0.9"/>
<stop offset="0.447036" stop-color="#FF56FC" stop-opacity="0.955296"/>
<stop offset="1" stop-color="#E44EFF" stop-opacity="0.9"/>
</linearGradient>
<linearGradient id="paint1_linear_911_3221" x1="47.4609" y1="31.3884" x2="114.101" y2="70.2971" gradientUnits="userSpaceOnUse">
<stop offset="0.188941" stop-color="#FAE7FF" stop-opacity="0.523483"/>
<stop offset="0.526042" stop-color="#E788FF"/>
<stop offset="1" stop-color="#F6B4FF" stop-opacity="0.1"/>
</linearGradient>
<radialGradient id="paint2_radial_911_3221" cx="0" cy="0" r="1" gradientUnits="userSpaceOnUse" gradientTransform="translate(47.8545 102.695) rotate(-50.9773) scale(55.8333 91.2937)">
<stop stop-color="white"/>
<stop offset="1" stop-color="white" stop-opacity="0"/>
</radialGradient>
</defs>
</svg>

<svg xmlns="http://www.w3.org/2000/svg" width="120" height="120" fill="none"><path fill="#E6C3E6" d="M10.697 25.795C10.697 19.28 15.978 14 22.492 14h39.16c6.513 0 11.794 5.28 11.794 11.795v54.728c0 6.514-5.28 11.795-11.795 11.795H22.492c-6.514 0-11.795-5.28-11.795-11.795z"/><foreignObject width="131.096" height="131.095" x="7.229" y="3.927"><div xmlns="http://www.w3.org/1999/xhtml" style="backdrop-filter:blur(15px);clip-path:url(#a);height:100%;width:100%"/></foreignObject><path fill="url(#b)" fill-opacity=".3" fill-rule="evenodd" d="M97.489 87.857c10.065-13.16 9.08-32.062-2.956-44.098-13.109-13.109-34.363-13.109-47.472 0s-13.109 34.363 0 47.472C59.097 103.267 78 104.252 91.16 94.187l10.145 10.145a2.36 2.36 0 0 0 3.337 0l2.993-2.993a2.36 2.36 0 0 0 0-3.337z" clip-rule="evenodd" data-figma-bg-blur-radius="30"/><foreignObject width="131.096" height="131.095" x="7.229" y="3.927"><div xmlns="http://www.w3.org/1999/xhtml" style="backdrop-filter:blur(15px);clip-path:url(#c);height:100%;width:100%"/></foreignObject><g fill-rule="evenodd" clip-rule="evenodd" data-figma-bg-blur-radius="30"><path fill="url(#d)" d="m97.176 87.878.125-.164c9.995-13.067 9.016-31.837-2.935-43.788-13.017-13.017-34.121-13.017-47.138 0s-13.017 34.121 0 47.138c11.951 11.951 30.72 12.93 43.788 2.935l.164-.125 10.291 10.291a2.124 2.124 0 0 0 3.003 0l2.993-2.993a2.124 2.124 0 0 0 0-3.003zm-6.017 6.309c-13.16 10.065-32.062 9.08-44.098-2.956-13.109-13.109-13.109-34.363 0-47.472s34.363-13.109 47.472 0c12.036 12.036 13.021 30.938 2.956 44.098l10.145 10.145a2.36 2.36 0 0 1 0 3.337l-2.993 2.993a2.36 2.36 0 0 1-3.337 0z"/><path fill="url(#e)" d="m97.176 87.878.125-.164c9.995-13.067 9.016-31.837-2.935-43.788-13.017-13.017-34.121-13.017-47.138 0s-13.017 34.121 0 47.138c11.951 11.951 30.72 12.93 43.788 2.935l.164-.125 10.291 10.291a2.124 2.124 0 0 0 3.003 0l2.993-2.993a2.124 2.124 0 0 0 0-3.003zm-6.017 6.309c-13.16 10.065-32.062 9.08-44.098-2.956-13.109-13.109-13.109-34.363 0-47.472s34.363-13.109 47.472 0c12.036 12.036 13.021 30.938 2.956 44.098l10.145 10.145a2.36 2.36 0 0 1 0 3.337l-2.993 2.993a2.36 2.36 0 0 1-3.337 0z"/></g><defs><linearGradient id="b" x1="44.837" x2="121.576" y1="40.487" y2="80.221" gradientUnits="userSpaceOnUse"><stop stop-color="#DE5AFF" stop-opacity=".9"/><stop offset=".447" stop-color="#FF56FC" stop-opacity=".955"/><stop offset="1" stop-color="#E44EFF" stop-opacity=".9"/></linearGradient><linearGradient id="d" x1="47.461" x2="114.101" y1="31.388" y2="70.297" gradientUnits="userSpaceOnUse"><stop offset=".189" stop-color="#FAE7FF" stop-opacity=".523"/><stop offset=".526" stop-color="#E788FF"/><stop offset="1" stop-color="#F6B4FF" stop-opacity=".1"/></linearGradient><clipPath id="a" transform="translate(-7.23 -3.927)"><path fill-rule="evenodd" d="M97.489 87.857c10.065-13.16 9.08-32.062-2.956-44.098-13.109-13.109-34.363-13.109-47.472 0s-13.109 34.363 0 47.472C59.097 103.267 78 104.252 91.16 94.187l10.145 10.145a2.36 2.36 0 0 0 3.337 0l2.993-2.993a2.36 2.36 0 0 0 0-3.337z" clip-rule="evenodd"/></clipPath><clipPath id="c" transform="translate(-7.23 -3.927)"><path fill-rule="evenodd" d="m97.176 87.878.125-.164c9.995-13.067 9.016-31.837-2.935-43.788-13.017-13.017-34.121-13.017-47.138 0s-13.017 34.121 0 47.138c11.951 11.951 30.72 12.93 43.788 2.935l.164-.125 10.291 10.291a2.124 2.124 0 0 0 3.003 0l2.993-2.993a2.124 2.124 0 0 0 0-3.003zm-6.017 6.309c-13.16 10.065-32.062 9.08-44.098-2.956-13.109-13.109-13.109-34.363 0-47.472s34.363-13.109 47.472 0c12.036 12.036 13.021 30.938 2.956 44.098l10.145 10.145a2.36 2.36 0 0 1 0 3.337l-2.993 2.993a2.36 2.36 0 0 1-3.337 0z" clip-rule="evenodd"/></clipPath><radialGradient id="e" cx="0" cy="0" r="1" gradientTransform="rotate(-50.977 131.634 1.157)scale(55.8333 91.2937)" gradientUnits="userSpaceOnUse"><stop stop-color="#fff"/><stop offset="1" stop-color="#fff" stop-opacity="0"/></radialGradient></defs></svg>
